Dominus_Dark_Funeral/scalable/apps/org.kde.plasma.folder.svg

<svg xmlns="http://www.w3.org/2000/svg" xmlns:xlink="http://www.w3.org/1999/xlink" width="48" height="48" viewBox="0 0 12.7 12.7"><defs><linearGradient gradientTransform="matrix(.19042 0 0 .19042 .243 .24)" xlink:href="#a" id="e" x1="-.04" y1="59.46" x2="64.18" y2="59.46" gradientUnits="userSpaceOnUse"/><linearGradient id="a"><stop offset="0" stop-color="#216778"/><stop offset=".27" stop-color="#164450"/><stop offset=".29" stop-color="#216778"/><stop offset=".49" stop-color="#2c89a0"/><stop offset=".71" stop-color="#216778"/><stop offset=".73" stop-color="#164450"/><stop offset="1" stop-color="#216778"/></linearGradient><linearGradient gradientTransform="matrix(.19042 0 0 .19042 .243 .24)" xlink:href="#b" id="f" x1="5.27" y1="51.93" x2="59.12" y2="51.93" gradientUnits="userSpaceOnUse"/><linearGradient id="b"><stop offset="0" stop-color="#216778"/><stop offset=".18" stop-color="#164450"/><stop offset=".19" stop-color="#216778"/><stop offset=".49" stop-color="#2c89a0"/><stop offset=".8" stop-color="#216778"/><stop offset=".81" stop-color="#164450"/><stop offset="1" stop-color="#216778"/></linearGradient><linearGradient gradientTransform="matrix(.19042 0 0 .19042 .243 .24)" xlink:href="#c" id="g" x1="7.65" y1="24.52" x2="56.44" y2="24.52" gradientUnits="userSpaceOnUse"/><linearGradient id="c"><stop offset="0" stop-color="#216778"/><stop offset=".12" stop-color="#164450"/><stop offset=".15" stop-color="#2c89a0"/><stop offset=".49" stop-color="#37abc8"/><stop offset=".85" stop-color="#2c89a0"/><stop offset=".88" stop-color="#164450"/><stop offset="1" stop-color="#216778"/></linearGradient><linearGradient gradientTransform="matrix(.19042 0 0 .19042 .243 .24)" xlink:href="#d" id="h" x1="13.48" y1="63.47" x2="13.48" y2="26.47" gradientUnits="userSpaceOnUse"/><linearGradient id="d"><stop offset="0" stop-color="#0b2228"/><stop offset="1" stop-color="#0b2228" stop-opacity="0"/></linearGradient><linearGradient gradientTransform="matrix(.19042 0 0 .19042 .243 .24)" xlink:href="#d" id="i" x1="5.27" y1="55.14" x2="5.27" y2="48.73" gradientUnits="userSpaceOnUse"/><linearGradient gradientTransform="matrix(.19042 0 0 .19042 .243 .24)" xlink:href="#d" id="j" x1="-.04" y1="63.9" x2="-.04" y2="55.02" gradientUnits="userSpaceOnUse"/></defs><path d="M.235 10.717h12.23v1.69H.235z" fill="url(#e)"/><path d="M1.247 9.519h10.256v1.222H1.247z" fill="url(#f)"/><path d="M6.234.293c-1.453.013-2.957.69-4.532 2.22v7.013h9.285V4.088h.003V2.513C9.46 1.112 7.881.276 6.234.293z" fill="url(#g)"/><path d="M6.23.293c-1.455.013-2.96.69-4.532 2.22v7.013h9.283V4.088h.006V2.513C9.454 1.112 7.877.276 6.23.293z" fill="url(#h)"/><path d="M1.247 9.519h10.256v1.222H1.247z" fill="url(#i)"/><path d="M.235 10.717h12.23v1.69H.235z" fill="url(#j)"/><path d="M6.561 1.329c-.003.019-.022.038-.038.047a.057.057 0 0 0-.028.044c0 .06-.086.086-.134.038-.032-.025-.034-.025-.06-.002-.037.033-.044.03-.077-.007l-.028-.035-.01.048c-.01.042-.015.048-.045.04-.058-.013-.075.038-.077.228 0 .09-.01.216-.019.278-.019.113-.015.235.012.465.005.063.007.514.004 1.002a47.284 47.284 0 0 0 0 1.84l.007.5h-.034c-.02 0-.038.006-.042.013-.02.033-.354.05-.392.02-.017-.016-.023-.016-.029 0-.006.013-.01.01-.01-.004 0-.033-.055-.08-.076-.067-.007.004-.015.027-.015.046 0 .047-.03.043-.051-.006-.02-.04-.084-.044-.095-.006-.004.023-.02.027-.096.025-.057-.002-.095-.01-.11-.029-.034-.032-.088-.028-.11.008-.025.038-.079.038-.09 0-.008-.03-.112-.06-.122-.034-.002.01-.027.013-.057.007-.044-.007-.051-.003-.051.023 0 .017-.01.033-.023.038-.033.014-.095-.015-.095-.042 0-.019-.008-.019-.027-.011a.1.1 0 0 1-.057.01 1.695 1.695 0 0 0-.332.038.478.478 0 0 1-.139.015l-.123.002-.004-.042-.004-.042-.05.05c-.041.043-.047.057-.05.158-.007.093 0 .114.03.16.019.03.041.076.05.104.016.057.073.122.11.122.013 0 .032-.02.038-.046.019-.051.051-.057.116-.022.053.026.186.026.413 0a2.18 2.18 0 0 1 .474-.006c.164.01.463.02.667.028l.367.008.004.745c.004.46.011.796.02.881.02.14.028.212.03.316.003.058.003.054.026-.038a1.29 1.29 0 0 0 .027-.143c.007-.062.007-.064.019-.022.011.032.019.036.057.032.032-.002.05.004.057.02.004.012.017.022.027.022.034 0 .087-.055.087-.086 0-.019.012-.034.023-.038.012-.006.023-.025.023-.04 0-.019.008-.03.015-.03.008 0 .016.013.016.028 0 .015.009.04.024.054.02.019.025.05.021.118a.34.34 0 0 0 .014.114c.011.019.015-.006.015-.078 0-.082.005-.113.034-.147.027-.038.03-.06.029-.16a.516.516 0 0 0-.033-.183c-.036-.08-.036-.078-.011-.078.019 0 .02-.034.023-.148a.715.715 0 0 0-.012-.16.33.33 0 0 1-.011-.114.463.463 0 0 0-.015-.13c-.012-.019-.014-.034-.004-.038.01-.002.007-.03-.002-.07-.014-.048-.014-.075 0-.092a.084.084 0 0 0 .007-.057c-.013-.051.025-.2.058-.219.028-.02.038-.076.013-.093-.008-.004-.015-.025-.015-.046 0-.02.007-.038.015-.044.023-.015.019-.038-.01-.038-.02 0-.02 0 0-.025.035-.034.469-.043.829-.019a7.29 7.29 0 0 0 .742.017c.134-.002.168-.013.168-.05 0-.033.013-.037.05-.003.022.021.036.023.081.008.038-.012.063-.012.07-.002.02.019.096.019.107 0 .01-.015.029-.015.166-.015.061 0 .07-.004.05-.02a.171.171 0 0 1-.052-.074c-.025-.06-.072-.08-.09-.036-.005.013-.024.023-.041.023-.023 0-.025-.004-.012-.013.029-.02-.003-.037-.043-.023-.025.005-.035-.004-.06-.061a.369.369 0 0 1-.03-.09.103.103 0 0 0-.019-.043c-.017-.023-.027-.025-.048-.014-.038.02-.083.006-.083-.028 0-.016-.006-.029-.014-.029-.007 0-.011.013-.005.029.01.038-.02.091-.048.091-.013 0-.023-.013-.023-.029 0-.017-.01-.03-.019-.03-.01 0-.03-.023-.047-.05-.027-.043-.029-.045-.039-.019-.009.025-.026.03-.093.035a1.284 1.284 0 0 0-.139.013c-.034.006-.055.004-.05-.006.004-.007-.034-.013-.085-.017-.051 0-.116-.004-.145-.005-.032-.002-.051-.012-.05-.021.006-.027-.087-.042-.178-.029-.174.023-.337.03-.581.029a2.912 2.912 0 0 1-.269-.01.562.562 0 0 1-.013-.126l-.023-.314a1.41 1.41 0 0 1 .004-.377c.029-.047.027-.158-.01-.312-.047-.19-.045-.175-.017-.175a.025.025 0 0 0 .023-.023c0-.012-.004-.021-.011-.02a.114.114 0 0 1-.038-.01.06.06 0 0 0-.057.005c-.027.015-.033.011-.054-.042-.011-.032-.032-.063-.045-.067-.014-.005-.018-.015-.014-.024.008-.01.02-.012.025-.008.025.017.013-.019-.034-.1a.24.24 0 0 1-.046-.165c.004-.064-.002-.087-.019-.095-.029-.01-.029-.05 0-.065.023-.013.029-.051.019-.133-.008-.068-.027-.082-.027-.025 0 .029-.005.05-.013.05-.019 0-.03-.095-.015-.124a.089.089 0 0 0 0-.063c-.015-.038 0-.064.026-.05.008.006.03-.003.048-.018l.038-.033-.034-.007c-.025-.008-.034-.021-.034-.054V3.43c0-.023.022-.004.03.025.008.032.008.032.034-.006.023-.038.023-.042-.005-.057-.014-.008-.035-.013-.038-.011a.109.109 0 0 1-.048-.016c-.025-.013-.034-.032-.034-.07 0-.046.005-.053.038-.053.019 0 .038.007.04.015a.09.09 0 0 0 .042.023c.03.01.036.007.019-.01-.01-.01-.02-.042-.02-.067 0-.038-.007-.055-.037-.068-.027-.012-.044-.032-.044-.046a.06.06 0 0 0-.012-.038c-.019-.017-.013-.03.02-.038.024-.008.028-.004.018.03-.01.04-.01.04.023.012.025-.02.029-.034.017-.055-.011-.02-.01-.029.006-.029.01 0 .027.02.036.042l.017.042V3c.002-.073-.013-.12-.038-.12-.02 0-.064-.092-.064-.136 0-.015.011-.032.026-.034.02-.007.017-.007-.007-.01-.029-.001-.035-.01-.035-.053 0-.028.006-.057.014-.059.007-.005.01-.042.003-.08-.007-.066-.005-.068.029-.057.029.008.032.006.025-.02-.004-.02 0-.033.005-.033.008 0 .016.015.016.032 0 .027.004.029.01.008.009-.036.026-.03.045.011.011.023.027.035.044.03a.073.073 0 0 1 .05.008c.018.012.018.02.001.052a.11.11 0 0 0-.013.066c.004.018 0 .04-.006.054-.019.032 0 .085.027.085.03 0 .026.09-.004.113-.02.017-.023.026-.008.084.03.114.023.29-.013.29-.017 0-.019.02-.017.077.004.042.006.236.006.432v.356l.043.016c.023.007.046.01.05.005.015-.015.011-.08-.004-.08-.007 0-.011-.013-.006-.03a.073.073 0 0 0-.007-.05c-.012-.011-.012-.026-.004-.04.02-.028.02-.076 0-.076-.006 0-.015.02-.019.042-.002.02-.011.042-.021.046-.027.007-.008-.097.027-.158.024-.046.028-.076.023-.28a2.433 2.433 0 0 0-.02-.257c-.007-.02-.005-.025.006-.02.029.02.053-.028.036-.062-.01-.017-.013-.038-.01-.05.005-.011.01-.304.014-.65.004-.591.008-.639.036-.723.03-.085.03-.087 0-.095-.028-.007-.036-.076-.028-.238.004-.07-.033-.122-.052-.068z" fill="#1a1a1a"/></svg>

<?xml version="1.0" encoding="UTF-8" standalone="no"?>
<svg
   xmlns:dc="http://purl.org/dc/elements/1.1/"
   xmlns:cc="http://creativecommons.org/ns#"
   xmlns:rdf="http://www.w3.org/1999/02/22-rdf-syntax-ns#"
   xmlns:svg="http://www.w3.org/2000/svg"
   xmlns="http://www.w3.org/2000/svg"
   xmlns:xlink="http://www.w3.org/1999/xlink"
   xmlns:sodipodi="http://sodipodi.sourceforge.net/DTD/sodipodi-0.dtd"
   xmlns:inkscape="http://www.inkscape.org/namespaces/inkscape"
   width="48"
   height="48"
   viewBox="0 0 12.7 12.7"
   version="1.1"
   id="svg74"
   sodipodi:docname="org.kde.plasma.folder.svg"
   inkscape:version="0.92.4 (5da689c313, 2019-01-14)">
  <metadata
     id="metadata78">
    <rdf:RDF>
      <cc:Work
         rdf:about="">
        <dc:format>image/svg+xml</dc:format>
        <dc:type
           rdf:resource="http://purl.org/dc/dcmitype/StillImage" />
        <dc:title></dc:title>
      </cc:Work>
    </rdf:RDF>
  </metadata>
  <sodipodi:namedview
     pagecolor="#ffffff"
     bordercolor="#666666"
     borderopacity="1"
     objecttolerance="10"
     gridtolerance="10"
     guidetolerance="10"
     inkscape:pageopacity="0"
     inkscape:pageshadow="2"
     inkscape:window-width="1112"
     inkscape:window-height="480"
     id="namedview76"
     showgrid="false"
     inkscape:zoom="4.9166667"
     inkscape:cx="2.1355932"
     inkscape:cy="24"
     inkscape:window-x="0"
     inkscape:window-y="25"
     inkscape:window-maximized="0"
     inkscape:current-layer="svg74" />
  <defs
     id="defs58">
    <linearGradient
       gradientTransform="matrix(0.19042,0,0,0.19042,0.243,0.24)"
       xlink:href="#a"
       id="e"
       x1="-.04"
       y1="59.46"
       x2="64.18"
       y2="59.46"
       gradientUnits="userSpaceOnUse" />
    <linearGradient
       id="a">
      <stop
         offset="0"
         stop-color="#216778"
         id="stop3" />
      <stop
         offset=".27"
         stop-color="#164450"
         id="stop5" />
      <stop
         offset=".29"
         stop-color="#216778"
         id="stop7" />
      <stop
         offset=".49"
         stop-color="#2c89a0"
         id="stop9" />
      <stop
         offset=".71"
         stop-color="#216778"
         id="stop11" />
      <stop
         offset=".73"
         stop-color="#164450"
         id="stop13" />
      <stop
         offset="1"
         stop-color="#216778"
         id="stop15" />
    </linearGradient>
    <linearGradient
       gradientTransform="matrix(0.19042,0,0,0.19042,0.243,0.24)"
       xlink:href="#b"
       id="f"
       x1="5.27"
       y1="51.93"
       x2="59.12"
       y2="51.93"
       gradientUnits="userSpaceOnUse" />
    <linearGradient
       id="b">
      <stop
         offset="0"
         stop-color="#216778"
         id="stop19" />
      <stop
         offset=".18"
         stop-color="#164450"
         id="stop21" />
      <stop
         offset=".19"
         stop-color="#216778"
         id="stop23" />
      <stop
         offset=".49"
         stop-color="#2c89a0"
         id="stop25" />
      <stop
         offset=".8"
         stop-color="#216778"
         id="stop27" />
      <stop
         offset=".81"
         stop-color="#164450"
         id="stop29" />
      <stop
         offset="1"
         stop-color="#216778"
         id="stop31" />
    </linearGradient>
    <linearGradient
       gradientTransform="matrix(0.19042,0,0,0.19042,0.243,0.24)"
       xlink:href="#c"
       id="g"
       x1="7.65"
       y1="24.52"
       x2="56.44"
       y2="24.52"
       gradientUnits="userSpaceOnUse" />
    <linearGradient
       id="c">
      <stop
         offset="0"
         stop-color="#216778"
         id="stop35" />
      <stop
         offset=".12"
         stop-color="#164450"
         id="stop37" />
      <stop
         offset=".15"
         stop-color="#2c89a0"
         id="stop39" />
      <stop
         offset=".49"
         stop-color="#37abc8"
         id="stop41" />
      <stop
         offset=".85"
         stop-color="#2c89a0"
         id="stop43" />
      <stop
         offset=".88"
         stop-color="#164450"
         id="stop45" />
      <stop
         offset="1"
         stop-color="#216778"
         id="stop47" />
    </linearGradient>
    <linearGradient
       gradientTransform="matrix(0.19042,0,0,0.19042,0.243,0.24)"
       xlink:href="#d"
       id="h"
       x1="13.48"
       y1="63.47"
       x2="13.48"
       y2="26.47"
       gradientUnits="userSpaceOnUse" />
    <linearGradient
       id="d">
      <stop
         offset="0"
         stop-color="#0b2228"
         id="stop51" />
      <stop
         offset="1"
         stop-color="#0b2228"
         stop-opacity="0"
         id="stop53" />
    </linearGradient>
    <linearGradient
       gradientTransform="matrix(0.19042,0,0,0.19042,0.243,0.24)"
       xlink:href="#d"
       id="i"
       x1="5.27"
       y1="55.14"
       x2="5.27"
       y2="48.73"
       gradientUnits="userSpaceOnUse" />
    <linearGradient
       gradientTransform="matrix(0.19042,0,0,0.19042,0.243,0.24)"
       xlink:href="#d"
       id="j"
       x1="-.04"
       y1="63.9"
       x2="-.04"
       y2="55.02"
       gradientUnits="userSpaceOnUse" />
  </defs>
  <path
     d="m 0.235,10.717 h 12.23 v 1.69 H 0.235 Z"
     id="path60"
     style="fill:url(#e)"
     inkscape:connector-curvature="0" />
  <path
     d="m 1.247,9.519 h 10.256 v 1.222 H 1.247 Z"
     id="path62"
     style="fill:url(#f)"
     inkscape:connector-curvature="0" />
  <path
     d="M 6.234,0.293 C 4.781,0.306 3.277,0.983 1.702,2.513 v 7.013 h 9.285 V 4.088 H 10.99 V 2.513 C 9.46,1.112 7.881,0.276 6.234,0.293 Z"
     id="path64"
     style="fill:url(#g)"
     inkscape:connector-curvature="0" />
  <path
     d="M 6.23,0.293 C 4.775,0.306 3.27,0.983 1.698,2.513 v 7.013 h 9.283 V 4.088 h 0.006 V 2.513 C 9.454,1.112 7.877,0.276 6.23,0.293 Z"
     id="path66"
     style="fill:url(#h)"
     inkscape:connector-curvature="0" />
  <path
     d="m 1.247,9.519 h 10.256 v 1.222 H 1.247 Z"
     id="path68"
     style="fill:url(#i)"
     inkscape:connector-curvature="0" />
  <path
     d="m 0.235,10.717 h 12.23 v 1.69 H 0.235 Z"
     id="path70"
     style="fill:url(#j)"
     inkscape:connector-curvature="0" />
  <path
     d="M 6.561,1.329 C 6.558,1.348 6.539,1.367 6.523,1.376 A 0.057,0.057 0 0 0 6.495,1.42 C 6.495,1.48 6.409,1.506 6.361,1.458 6.329,1.433 6.327,1.433 6.301,1.456 6.264,1.489 6.257,1.486 6.224,1.449 L 6.196,1.414 6.186,1.462 C 6.176,1.504 6.171,1.51 6.141,1.502 6.083,1.489 6.066,1.54 6.064,1.73 6.064,1.82 6.054,1.946 6.045,2.008 6.026,2.121 6.03,2.243 6.057,2.473 6.062,2.536 6.064,2.987 6.061,3.475 a 47.284,47.284 0 0 0 0,1.84 l 0.007,0.5 H 6.034 C 6.014,5.815 5.996,5.821 5.992,5.828 5.972,5.861 5.638,5.878 5.6,5.848 5.583,5.832 5.577,5.832 5.571,5.848 5.565,5.861 5.561,5.858 5.561,5.844 5.561,5.811 5.506,5.764 5.485,5.777 5.478,5.781 5.47,5.804 5.47,5.823 5.47,5.87 5.44,5.866 5.419,5.817 5.399,5.777 5.335,5.773 5.324,5.811 5.32,5.834 5.304,5.838 5.228,5.836 5.171,5.834 5.133,5.826 5.118,5.807 5.084,5.775 5.03,5.779 5.008,5.815 4.983,5.853 4.929,5.853 4.918,5.815 4.91,5.785 4.806,5.755 4.796,5.781 4.794,5.791 4.769,5.794 4.739,5.788 4.695,5.781 4.688,5.785 4.688,5.811 4.688,5.828 4.678,5.844 4.665,5.849 4.632,5.863 4.57,5.834 4.57,5.807 4.57,5.788 4.562,5.788 4.543,5.796 A 0.1,0.1 0 0 1 4.486,5.806 1.695,1.695 0 0 0 4.154,5.844 0.478,0.478 0 0 1 4.015,5.859 L 3.892,5.861 3.888,5.819 3.884,5.777 3.834,5.827 C 3.793,5.87 3.787,5.884 3.784,5.985 c -0.007,0.093 0,0.114 0.03,0.16 0.019,0.03 0.041,0.076 0.05,0.104 0.016,0.057 0.073,0.122 0.11,0.122 0.013,0 0.032,-0.02 0.038,-0.046 0.019,-0.051 0.051,-0.057 0.116,-0.022 0.053,0.026 0.186,0.026 0.413,0 A 2.18,2.18 0 0 1 5.015,6.297 c 0.164,0.01 0.463,0.02 0.667,0.028 l 0.367,0.008 0.004,0.745 c 0.004,0.46 0.011,0.796 0.02,0.881 0.02,0.14 0.028,0.212 0.03,0.316 0.003,0.058 0.003,0.054 0.026,-0.038 A 1.29,1.29 0 0 0 6.156,8.094 C 6.163,8.032 6.163,8.03 6.175,8.072 c 0.011,0.032 0.019,0.036 0.057,0.032 0.032,-0.002 0.05,0.004 0.057,0.02 0.004,0.012 0.017,0.022 0.027,0.022 0.034,0 0.087,-0.055 0.087,-0.086 0,-0.019 0.012,-0.034 0.023,-0.038 0.012,-0.006 0.023,-0.025 0.023,-0.04 0,-0.019 0.008,-0.03 0.015,-0.03 0.008,0 0.016,0.013 0.016,0.028 0,0.015 0.009,0.04 0.024,0.054 0.02,0.019 0.025,0.05 0.021,0.118 A 0.34,0.34 0 0 0 6.539,8.266 C 6.55,8.285 6.554,8.26 6.554,8.188 6.554,8.106 6.559,8.075 6.588,8.041 6.615,8.003 6.618,7.981 6.617,7.881 A 0.516,0.516 0 0 0 6.584,7.698 C 6.548,7.618 6.548,7.62 6.573,7.62 6.592,7.62 6.593,7.586 6.596,7.472 A 0.715,0.715 0 0 0 6.584,7.312 0.33,0.33 0 0 1 6.573,7.198 0.463,0.463 0 0 0 6.558,7.068 C 6.546,7.049 6.544,7.034 6.554,7.03 6.564,7.028 6.561,7 6.552,6.96 6.538,6.912 6.538,6.885 6.552,6.868 A 0.084,0.084 0 0 0 6.559,6.811 C 6.546,6.76 6.584,6.611 6.617,6.592 6.645,6.572 6.655,6.516 6.63,6.499 6.622,6.495 6.615,6.474 6.615,6.453 6.615,6.433 6.622,6.415 6.63,6.409 6.653,6.394 6.649,6.371 6.62,6.371 c -0.02,0 -0.02,0 0,-0.025 C 6.655,6.312 7.089,6.303 7.449,6.327 A 7.29,7.29 0 0 0 8.191,6.344 C 8.325,6.342 8.359,6.331 8.359,6.294 8.359,6.261 8.372,6.257 8.409,6.291 8.431,6.312 8.445,6.314 8.49,6.299 8.528,6.287 8.553,6.287 8.56,6.297 c 0.02,0.019 0.096,0.019 0.107,0 0.01,-0.015 0.029,-0.015 0.166,-0.015 0.061,0 0.07,-0.004 0.05,-0.02 A 0.171,0.171 0 0 1 8.831,6.188 C 8.806,6.128 8.759,6.108 8.741,6.152 8.736,6.165 8.717,6.175 8.7,6.175 8.677,6.175 8.675,6.171 8.688,6.162 8.717,6.142 8.685,6.125 8.645,6.139 8.62,6.144 8.61,6.135 8.585,6.078 A 0.369,0.369 0 0 1 8.555,5.988 0.103,0.103 0 0 0 8.536,5.945 C 8.519,5.922 8.509,5.92 8.488,5.931 8.45,5.951 8.405,5.937 8.405,5.903 8.405,5.887 8.399,5.874 8.391,5.874 8.384,5.874 8.38,5.887 8.386,5.903 8.396,5.941 8.366,5.994 8.338,5.994 8.325,5.994 8.315,5.981 8.315,5.965 8.315,5.948 8.305,5.935 8.296,5.935 8.286,5.935 8.266,5.912 8.249,5.885 8.222,5.842 8.22,5.84 8.21,5.866 8.201,5.891 8.184,5.896 8.117,5.901 A 1.284,1.284 0 0 0 7.978,5.914 C 7.944,5.92 7.923,5.918 7.928,5.908 7.932,5.901 7.894,5.895 7.843,5.891 7.792,5.891 7.727,5.887 7.698,5.886 7.666,5.884 7.647,5.874 7.648,5.865 7.654,5.838 7.561,5.823 7.47,5.836 7.296,5.859 7.133,5.866 6.889,5.865 A 2.912,2.912 0 0 1 6.62,5.855 0.562,0.562 0 0 1 6.607,5.729 L 6.584,5.415 A 1.41,1.41 0 0 1 6.588,5.038 C 6.617,4.991 6.615,4.88 6.578,4.726 6.531,4.536 6.533,4.551 6.561,4.551 A 0.025,0.025 0 0 0 6.584,4.528 C 6.584,4.516 6.58,4.507 6.573,4.508 A 0.114,0.114 0 0 1 6.535,4.498 0.06,0.06 0 0 0 6.478,4.503 C 6.451,4.518 6.445,4.514 6.424,4.461 6.413,4.429 6.392,4.398 6.379,4.394 6.365,4.389 6.361,4.379 6.365,4.37 6.373,4.36 6.385,4.358 6.39,4.362 6.415,4.379 6.403,4.343 6.356,4.262 A 0.24,0.24 0 0 1 6.31,4.097 C 6.314,4.033 6.308,4.01 6.291,4.002 6.262,3.992 6.262,3.952 6.291,3.937 6.314,3.924 6.32,3.886 6.31,3.804 6.302,3.736 6.283,3.722 6.283,3.779 c 0,0.029 -0.005,0.05 -0.013,0.05 -0.019,0 -0.03,-0.095 -0.015,-0.124 a 0.089,0.089 0 0 0 0,-0.063 C 6.24,3.604 6.255,3.578 6.281,3.592 6.289,3.598 6.311,3.589 6.329,3.574 L 6.367,3.541 6.333,3.534 C 6.308,3.526 6.299,3.513 6.299,3.48 V 3.43 c 0,-0.023 0.022,-0.004 0.03,0.025 C 6.337,3.487 6.337,3.487 6.363,3.449 6.386,3.411 6.386,3.407 6.358,3.392 6.344,3.384 6.323,3.379 6.32,3.381 A 0.109,0.109 0 0 1 6.272,3.365 C 6.247,3.352 6.238,3.333 6.238,3.295 c 0,-0.046 0.005,-0.053 0.038,-0.053 0.019,0 0.038,0.007 0.04,0.015 A 0.09,0.09 0 0 0 6.358,3.28 C 6.388,3.29 6.394,3.287 6.377,3.27 6.367,3.26 6.357,3.228 6.357,3.203 6.357,3.165 6.35,3.148 6.32,3.135 6.293,3.123 6.276,3.103 6.276,3.089 A 0.06,0.06 0 0 0 6.264,3.051 C 6.245,3.034 6.251,3.021 6.284,3.013 6.308,3.005 6.312,3.009 6.302,3.043 6.292,3.083 6.292,3.083 6.325,3.055 6.35,3.035 6.354,3.021 6.342,3 6.331,2.98 6.332,2.971 6.348,2.971 c 0.01,0 0.027,0.02 0.036,0.042 L 6.401,3.055 V 3 C 6.403,2.927 6.388,2.88 6.363,2.88 6.343,2.88 6.299,2.788 6.299,2.744 6.299,2.729 6.31,2.712 6.325,2.71 6.345,2.703 6.342,2.703 6.318,2.7 6.289,2.699 6.283,2.69 6.283,2.647 6.283,2.619 6.289,2.59 6.297,2.588 6.304,2.583 6.307,2.546 6.3,2.508 6.293,2.442 6.295,2.44 6.329,2.451 c 0.029,0.008 0.032,0.006 0.025,-0.02 -0.004,-0.02 0,-0.033 0.005,-0.033 0.008,0 0.016,0.015 0.016,0.032 0,0.027 0.004,0.029 0.01,0.008 0.009,-0.036 0.026,-0.03 0.045,0.011 0.011,0.023 0.027,0.035 0.044,0.03 a 0.073,0.073 0 0 1 0.05,0.008 c 0.018,0.012 0.018,0.02 0.001,0.052 A 0.11,0.11 0 0 0 6.512,2.605 c 0.004,0.018 0,0.04 -0.006,0.054 -0.019,0.032 0,0.085 0.027,0.085 0.03,0 0.026,0.09 -0.004,0.113 -0.02,0.017 -0.023,0.026 -0.008,0.084 0.03,0.114 0.023,0.29 -0.013,0.29 -0.017,0 -0.019,0.02 -0.017,0.077 C 6.495,3.35 6.497,3.544 6.497,3.74 V 4.096 L 6.54,4.112 C 6.563,4.119 6.586,4.122 6.59,4.117 6.605,4.102 6.601,4.037 6.586,4.037 6.579,4.037 6.575,4.024 6.58,4.007 A 0.073,0.073 0 0 0 6.573,3.957 C 6.561,3.946 6.561,3.931 6.569,3.917 6.589,3.889 6.589,3.841 6.569,3.841 6.563,3.841 6.554,3.861 6.55,3.883 6.548,3.903 6.539,3.925 6.529,3.929 6.502,3.936 6.521,3.832 6.556,3.771 6.58,3.725 6.584,3.695 6.579,3.491 A 2.433,2.433 0 0 0 6.559,3.234 C 6.552,3.214 6.554,3.209 6.565,3.214 6.594,3.234 6.618,3.186 6.601,3.152 6.591,3.135 6.588,3.114 6.591,3.102 6.596,3.091 6.601,2.798 6.605,2.452 6.609,1.861 6.613,1.813 6.641,1.729 6.671,1.644 6.671,1.642 6.641,1.634 6.613,1.627 6.605,1.558 6.613,1.396 6.617,1.326 6.58,1.274 6.561,1.328 Z"
     id="path72"
     inkscape:connector-curvature="0"
     style="fill:#1a1a1a" />
</svg>
